svg/account_wrench_outline.svg

<svg xmlns="http://www.w3.org/2000/svg" viewBox="0 0 24 24"><path d="m22.9 21.2-4.1-4.1c.4-1 .2-2.3-.7-3.1-.9-.9-2.2-1.1-3.3-.6l1.9 1.9-1.4 1.4-2-2c-.5 1.1-.3 2.4.6 3.4.9.9 2.1 1.1 3.1.7l4.1 4.1c.2.2.5.2.6 0l1-1c.3-.3.3-.6.2-.7M10 12c2.2 0 4-1.8 4-4s-1.8-4-4-4-4 1.8-4 4 1.8 4 4 4m0-6c1.1 0 2 .9 2 2s-.9 2-2 2-2-.9-2-2 .9-2 2-2m3 14H2v-3c0-2.7 5.3-4 8-4 .5 0 1.2.1 1.9.2-.4.5-.6 1.1-.8 1.8-.4 0-.7-.1-1.1-.1-3 0-6.1 1.5-6.1 2.1v1.1h7.6c.3.8.9 1.4 1.5 1.9"/></svg>

<svg xmlns="http://www.w3.org/2000/svg" id="mdi-account-wrench-outline" viewBox="0 0 24 24"><path d="M22.9 21.2L18.8 17.1C19.2 16.1 19 14.8 18.1 14C17.2 13.1 15.9 12.9 14.8 13.4L16.7 15.3L15.3 16.7L13.3 14.7C12.8 15.8 13 17.1 13.9 18.1C14.8 19 16 19.2 17 18.8L21.1 22.9C21.3 23.1 21.6 23.1 21.7 22.9L22.7 21.9C23 21.6 23 21.3 22.9 21.2M10 12C12.2 12 14 10.2 14 8S12.2 4 10 4 6 5.8 6 8 7.8 12 10 12M10 6C11.1 6 12 6.9 12 8S11.1 10 10 10 8 9.1 8 8 8.9 6 10 6M13 20H2V17C2 14.3 7.3 13 10 13C10.5 13 11.2 13.1 11.9 13.2C11.5 13.7 11.3 14.3 11.1 15C10.7 15 10.4 14.9 10 14.9C7 14.9 3.9 16.4 3.9 17V18.1H11.5C11.8 18.9 12.4 19.5 13 20Z" /></svg>
